public/assets/img/casestudies/recupera/brand2Sm.svg

<svg fill="none" height="246" viewBox="0 0 208 246" width="208" xmlns="http://www.w3.org/2000/svg" xmlns:xlink="http://www.w3.org/1999/xlink"><clipPath id="a"><path d="m0 0h208v246h-208z"/></clipPath><g clip-path="url(#a)"><path d="m160.95 10.2573c3.43-3.50597 8.991-3.50598 12.42 0 3.43 3.506 3.43 9.1902 0 12.6962l-53.629 54.8214c-3.43 3.5059-8.991 3.5059-12.421 0-3.429-3.506-3.429-9.1903 0-12.6962z" fill="#7368f8"/><path d="m355.918-59.1852c4.222-4.316 11.067-4.316 15.289 0 4.223 4.3161 4.223 11.3137 0 15.6297l-232.682 237.8525c-4.222 4.316-11.068 4.316-15.29 0s-4.222-11.313 0-15.629z" fill="#fad166"/><path d="m230.479-15.9854c8.708-8.9012 22.826-8.9012 31.534.0001 8.708 8.90125 8.708 23.33308 0 32.2344l-176.1718 180.0859c-8.7078 8.902-22.8259 8.902-31.5337 0-8.7078-8.901-8.7078-23.333 0-32.234z" fill="#29a42e"/><path d="m15.7649 203.499c8.7075-8.901 22.8257-8.9 31.5332.001s8.708 23.333.0005 32.234-22.8257 8.9-31.5332-.001c-8.70745-8.901-8.70797-23.333-.0005-32.234z" fill="#7368f8"/></g></svg>

<svg width="208" height="246" viewBox="0 0 208 246" fill="none" xmlns="http://www.w3.org/2000/svg">
<g clip-path="url(#clip0_2241_166600)">
<path d="M160.95 10.2573C164.38 6.75133 169.941 6.75132 173.37 10.2573C176.8 13.7633 176.8 19.4475 173.37 22.9535L119.741 77.7749C116.311 81.2808 110.75 81.2808 107.32 77.7749C103.891 74.2689 103.891 68.5846 107.32 65.0787L160.95 10.2573Z" fill="#7368F8"/>
<path d="M355.918 -59.1852C360.14 -63.5012 366.985 -63.5012 371.207 -59.1852C375.43 -54.8691 375.43 -47.8715 371.207 -43.5555L138.525 194.297C134.303 198.613 127.457 198.613 123.235 194.297C119.013 189.981 119.013 182.984 123.235 178.668L355.918 -59.1852Z" fill="#FAD166"/>
<path d="M230.479 -15.9854C239.187 -24.8866 253.305 -24.8866 262.013 -15.9853C270.721 -7.08405 270.721 7.34778 262.013 16.2491L85.8412 196.335C77.1334 205.237 63.0153 205.237 54.3075 196.335C45.5997 187.434 45.5997 173.002 54.3075 164.101L230.479 -15.9854Z" fill="#29A42E"/>
<path d="M15.7649 203.499C24.4724 194.598 38.5906 194.599 47.2981 203.5C56.0056 212.401 56.0061 226.833 47.2986 235.734C38.5911 244.635 24.4729 244.634 15.7654 235.733C7.05795 226.832 7.05743 212.4 15.7649 203.499Z" fill="#7368F8"/>
</g>
<defs>
<clipPath id="clip0_2241_166600">
<rect width="208" height="246" fill="white"/>
</clipPath>
</defs>
</svg>
